X: 43495
T: Yellow Wattle, The
R: jig
M: 6/8
K: Dmixolydian
|:dcA ~A2D|(3.F.G.A D (3.G.F.E D|dcA ~A2B|dcA GED:|
~D3 c2A|dfd cBc|~D3 c2e|dcA GED|
~D3 c2A|dfd (3Bcd e|(3.g.f.e d (3edc e|dcA GED|

